X: 225
T: Winder Slide
C:Joe LaRose (ca.1980)
B: canberra pickers and fiddlers
B: tunes
M:4/4
L:1/8
R: reel
Q: 1/4=100
K:D
V:1 
de \
| "D"f2fe f3e | f2 a4 de | fdec dc3 | "G"d3D d3B- |    
"G"BdB2 A3D | "A7"F2 E4 FD | DB,B,3 A,B,3 | "D"D3E D2 :|
""AB- \
| "G"BdB2 A3D | "A7"F2 E4 FE | DDFF DF3 | "D"A3B A2AB-|
"G"BdB2 "D"A3D | "A7"F2 E4 FE | DB,B,3 A,B,3 | "D"D2ef- fde2 | "D"d3D d4 |]
% abcbook-tune_id 63ae8f1cd22c748aacec2c77
% abcbook-tune_composer_id 
% abcbook-link-0 https://www.youtube.com/watch?v=piSFb03Bzqs
% abcbook-boost 0
% abcbook-difficulty 1
% abcbook-tags canberra pickers and fiddlers,old time tunes,ss1,steve ryan,test,© free
% abcbook-tablature 
% abcbook-transpose 
% abcbook-tuning ADAE
% abcbook-lastupdated 1702076305702
% abcbook-src-url https://tunebook.net/scrape/tunes.abc
% abcbook-soundfonts 
% abcbook-repeats 1


